public/icons/bookmark.svg

<svg width="24" height="34" viewBox="0 0 24 34" fill="none" xmlns="http://www.w3.org/2000/svg">
<path d="M0.333252 4.50007C0.333252 3.39498 0.742973 2.33516 1.47228 1.55374C2.20159 0.77233 3.19074 0.333336 4.22214 0.333336L19.7777 0.333336C20.8091 0.333336 21.7983 0.77233 22.5276 1.55374C23.2569 2.33516 23.6666 3.39498 23.6666 4.50007V32.6255C23.6665 32.8139 23.6187 32.9988 23.5283 33.1604C23.4379 33.3221 23.3083 33.4544 23.1533 33.5433C22.9982 33.6323 22.8236 33.6745 22.6479 33.6655C22.4723 33.6565 22.3022 33.5966 22.1558 33.4922L11.9999 27.6275L1.84409 33.4922C1.69768 33.5966 1.52759 33.6565 1.35193 33.6655C1.17627 33.6745 1.00162 33.6323 0.846584 33.5433C0.691547 33.4544 0.561927 33.3221 0.471529 33.1604C0.381132 32.9988 0.333343 32.8139 0.333252 32.6255V4.50007ZM4.22214 2.4167C3.70644 2.4167 3.21187 2.6362 2.84721 3.02691C2.48256 3.41761 2.2777 3.94753 2.2777 4.50007V30.6797L11.4613 25.5087C11.6209 25.395 11.8083 25.3343 11.9999 25.3343C12.1916 25.3343 12.379 25.395 12.5385 25.5087L21.7221 30.6797V4.50007C21.7221 3.94753 21.5173 3.41761 21.1526 3.02691C20.788 2.6362 20.2934 2.4167 19.7777 2.4167H4.22214Z" fill="#8A91AB"/>
</svg>

<svg xmlns="http://www.w3.org/2000/svg" width="24" height="34" fill="none"><path fill="#8A91AB" d="M.333 4.5c0-1.105.41-2.165 1.14-2.946C2.201.772 3.19.334 4.222.334h15.555c1.031 0 2.02.438 2.75 1.22A4.32 4.32 0 0 1 23.667 4.5v28.126c0 .188-.048.373-.139.534-.09.162-.22.294-.375.383a.92.92 0 0 1-.997-.05L12 27.626 1.844 33.493a.919.919 0 0 1-.998.051 1 1 0 0 1-.374-.383 1.1 1.1 0 0 1-.139-.534zm3.89-2.083c-.517 0-1.011.22-1.376.61-.364.39-.57.92-.57 1.473v26.18l9.184-5.171a.93.93 0 0 1 .539-.175c.192 0 .379.061.539.175l9.183 5.17V4.5c0-.552-.205-1.082-.57-1.473a1.88 1.88 0 0 0-1.374-.61z"/></svg>
